dist/svg/static/zhihu-small.svg

<svg id="zhihu-small" xmlns="http://www.w3.org/2000/svg" width="24" height="24" viewBox="0 0 24 24">
  <title>zhihu</title>
  <g class="audiicon-group audiicon-group--small">
    <path d="M3,20.4432a3.2957,3.2957,0,0,0,2.7283-.227c1.3453-.7951,2.3374-4.2913,2.3374-4.2913l3.1562,3.9127a5.7007,5.7007,0,0,0-.0511-2.3883c-.3389-.526-2.183-2.6409-2.183-2.6409l-.8054.7193.5729-2.3151h3.4385s0-1.3627-.6728-1.4385-2.7657,0-2.7657,0v-4.24h3.102s-.0371-1.4006-.6354-1.4006H6.1768l.7847-2.3093S5.6908,3.9,5.2423,4.695s-1.906,4.8834-1.906,4.8834.4859.2272,1.3081-.3785A3.2793,3.2793,0,0,0,5.7283,7.5342l1.495-.0757.037,4.3156s-2.5785-.0379-3.102,0-.8221,1.4385-.8221,1.4385H7.26A13.332,13.332,0,0,1,5.9152,17.339,11.771,11.771,0,0,1,3,20.4432Z" transform="translate(0)" fill-rule="evenodd" class="audiicon-zhihu__character-first"/>
    <path d="M14.6508,20.3467l2.2235-1.6H20V6H13V18.7465h1.1913ZM14.4377,7.4185h4.1246v9.88H17.0928l-1.8734,1.4306-.4084-1.4306h-.3733Z" transform="translate(0)" fill-rule="evenodd" class="audiicon-zhihu__character-second"/>
  </g>
  <rect width="24" height="24" fill="none"/>
</svg>

<?xml version="1.0" encoding="UTF-8" standalone="no"?>
<svg width="24px" height="24px" viewBox="0 0 24 24" version="1.1" xmlns="http://www.w3.org/2000/svg" xmlns:xlink="http://www.w3.org/1999/xlink">
    <!-- Generator: sketchtool 46.2 (44496) - http://www.bohemiancoding.com/sketch -->
    <title>zhihu-small</title>
    <desc>Created with sketchtool.</desc>
    <defs></defs>
    <g id="icons-published" stroke="none" stroke-width="1" fill="none" fill-rule="evenodd">
        <g id="briefing" transform="translate(-2372.000000, -2458.000000)"></g>
        <g id="zhihu-small" fill-rule="nonzero" fill="#000000">
            <path d="M3,20.4 C3.9,20.7 4.9,20.6 5.7,20.2 C7,19.4 8,15.9 8,15.9 L11.2,19.8 C11.4,19 11.3,18.2 11.1,17.4 C10.8,16.9 9,14.8 9,14.8 L8.2,15.5 L8.8,13.2 L12.2,13.2 C12.2,13.2 12.2,11.8 11.5,11.8 C10.8,11.8 8.7,11.8 8.7,11.8 L8.7,7.5 L11.8,7.5 C11.8,7.5 11.8,6.1 11.2,6.1 L6.2,6.1 L7,3.8 C7,3.8 5.7,3.9 5.3,4.7 C4.9,5.5 3.3,9.6 3.3,9.6 C3.3,9.6 3.8,9.8 4.6,9.2 C5.1,8.8 5.5,8.2 5.7,7.5 L7.2,7.4 L7.2,11.7 C7.2,11.7 4.6,11.7 4.1,11.7 C3.6,11.7 3.3,13.1 3.3,13.1 L7.2,13.1 C7,14.7 6.6,16 5.9,17.3 C5.1,18.5 4.2,19.6 3,20.4 Z M14.6,20.3 L16.8,18.7 L20,18.7 L20,6 L13,6 L13,18.7 L14.2,18.7 L14.6,20.3 Z M14.4,7.4 L18.5,7.4 L18.5,17.3 L17,17.3 L15.1,18.7 L14.7,17.3 L14.3,17.3 L14.4,7.4 Z" id="Shape"></path>
        </g>
    </g>
</svg>
